assets/images/dry_logo.svg

<?xml version="1.0" encoding="UTF-8"?>
<svg width="505px" height="183px" viewBox="0 0 505 183" version="1.1" xmlns="http://www.w3.org/2000/svg" xmlns:xlink="http://www.w3.org/1999/xlink">
    <title>dry_logo</title>
    <defs>
        <path d="M458.75822,107.426 L474.53622,64.416 L504.09422,64.416 L468.72222,149.608 C458.59222,173.688 448.46222,181.99 430.19622,181.99 C420.73022,181.99 416.57822,181.326 409.93622,180.164 L409.93622,153.594 C417.07622,154.424 419.90022,154.756 426.04422,154.756 C434.34622,154.756 438.49822,152.43 441.15622,146.286 L441.48822,145.29 L404.45422,64.416 L441.82022,64.416 Z M112.40342,21.936 L112.40342,37.51 L123.41642,26.498 C131.97702,17.936 145.87742,17.936 154.43822,26.498 C162.99882,35.058 162.99882,48.958 154.43822,57.52 L143.42522,68.532 L158.99982,68.532 C171.10642,68.532 180.93562,78.362 180.93562,90.468 C180.93562,102.574 171.10642,112.404 158.99982,112.404 L143.42522,112.404 L154.43822,123.416 C162.99882,131.978 162.99882,145.878 154.43822,154.438 C145.87742,163 131.97702,163 123.41642,154.438 L112.40342,143.426 L112.40342,159 C112.40342,171.106 102.57442,180.936 90.46782,180.936 C78.36102,180.936 68.53202,171.106 68.53202,159 L68.53202,143.426 L57.51922,154.438 C48.95842,163 35.05802,163 26.49742,154.438 C17.93662,145.878 17.93662,131.978 26.49742,123.416 L37.51022,112.404 L21.93582,112.404 C9.82902,112.404 9.9475983e-14,102.574 9.9475983e-14,90.468 C9.9475983e-14,78.362 9.82902,68.532 21.93582,68.532 L37.51022,68.532 L26.49742,57.52 C17.93662,48.958 17.93662,35.058 26.49742,26.498 C35.05802,17.936 48.95842,17.936 57.51922,26.498 L68.53202,37.51 L68.53202,21.936 C68.53202,9.83 78.36102,-1.70530257e-13 90.46782,-1.70530257e-13 C102.57442,-1.70530257e-13 112.40342,9.83 112.40342,21.936 Z M336.20222,91.65 C336.20222,124.532 314.28022,148.778 270.10622,148.778 L225.26822,148.778 L225.26822,35.852 L270.10622,35.852 C314.28022,35.852 336.20222,58.77 336.20222,91.65 Z M401.63222,64.416 L401.63222,93.144 C399.80622,92.48 397.31422,91.982 394.15822,91.982 C381.87022,91.982 372.57022,99.29 372.57022,116.56 L372.57022,148.778 L339.35622,148.778 L339.35622,64.416 L366.59222,64.416 L368.08622,80.69 C373.06822,68.4 381.53822,62.754 392.33222,62.754 C396.31822,62.754 399.14022,63.252 401.63222,64.416 Z M259.81022,62.422 L259.81022,122.206 L270.27422,122.206 C286.71422,122.206 300.49822,112.076 300.49822,92.48 C300.49822,72.884 286.88022,62.422 270.27422,62.422 Z" id="path-1"></path>
    </defs>
    <g id="dry_logo" stroke="none" fill="none" transform="translate(0.4498, 0.24)" xlink:href="#path-1" fill-rule="evenodd" stroke-width="1">
        <g id="dry_icon" transform="translate(0, -0)">
            <path d="M37.51022,112.404 L21.93582,112.404 C9.82902,112.404 0,102.574 0,90.468 C0,78.362 9.82902,68.532 21.93582,68.532 L37.51022,68.532 L26.49742,57.52 C17.93662,48.958 17.93662,35.058 26.49742,26.498 C35.05802,17.936 48.95842,17.936 57.51922,26.498 L68.53202,37.51 L68.53202,21.936 C68.53202,9.83 78.36102,0 90.46782,0 C102.57442,0 112.40342,9.83 112.40342,21.936 L112.40342,37.51 L123.41642,26.498 C131.97702,17.936 145.87742,17.936 154.43822,26.498 C162.99882,35.058 162.99882,48.958 154.43822,57.52 L143.42522,68.532 L158.99982,68.532 C171.10642,68.532 180.93562,78.362 180.93562,90.468 C180.93562,102.574 171.10642,112.404 158.99982,112.404 L143.42522,112.404 L154.43822,123.416 C162.99882,131.978 162.99882,145.878 154.43822,154.438 C145.87742,163 131.97702,163 123.41642,154.438 L112.40342,143.426 L112.40342,159 C112.40342,171.106 102.57442,180.936 90.46782,180.936 C78.36102,180.936 68.53202,171.106 68.53202,159 L68.53202,143.426 L57.51922,154.438 C48.95842,163 35.05802,163 26.49742,154.438 C17.93662,145.878 17.93662,131.978 26.49742,123.416 L37.51022,112.404 Z" id="Fill-2" fill="#FF8000"></path>
            <path d="M91.69542,47.606 C114.21202,47.606 132.49282,65.886 132.49282,88.404 C132.49282,110.92 114.21202,129.202 91.69542,129.202 C69.17862,129.202 50.89782,110.92 50.89782,88.404 C50.89782,65.886 69.17862,47.606 91.69542,47.606 Z" id="Fill-6" fill="#FFC266"></path>
            <path d="M70.51742,80.438 C69.15042,79.704 68.63622,77.998 69.36982,76.632 C70.10322,75.264 71.80862,74.75 73.17562,75.484 L85.46042,82.076 C86.37762,82.568 86.94782,83.528 86.9420638,84.568 C86.93622,85.61 86.35562,86.562 85.43282,87.044 L73.28902,93.388 C71.91402,94.108 70.21442,93.574 69.49622,92.198 C68.77782,90.824 69.31102,89.124 70.68602,88.406 L78.12462,84.52 L70.51742,80.438 Z" id="Fill-7" fill="#000000"></path>
            <path d="M110.21502,75.484 C111.58202,74.75 113.28742,75.264 114.02082,76.632 C114.75442,77.998 114.24022,79.704 112.87322,80.438 L105.26602,84.52 L112.70462,88.406 C114.07962,89.124 114.61282,90.824 113.89442,92.198 C113.17622,93.574 111.47662,94.108 110.10162,93.388 L97.95782,87.044 C97.03502,86.562 96.45442,85.61 96.4485762,84.568 C96.44282,83.528 97.01302,82.568 97.93022,82.076 L110.21502,75.484 Z" id="Fill-8" fill="#000000"></path>
        </g>
        <g id="dry_text" transform="translate(225.2682, 35.852)" fill="#FF8000">
            <path d="M0,112.926 L44.838,112.926 C89.012,112.926 110.934,88.68 110.934,55.798 C110.934,22.918 89.012,0 44.838,0 L0,0 L0,112.926 Z M34.542,86.354 L34.542,26.57 L45.006,26.57 C61.612,26.57 75.23,37.032 75.23,56.628 C75.23,76.224 61.446,86.354 45.006,86.354 L34.542,86.354 Z" id="Fill-9"></path>
            <path d="M114.088,112.926 L147.302,112.926 L147.302,80.708 C147.302,63.438 156.602,56.13 168.89,56.13 C172.046,56.13 174.538,56.628 176.364,57.292 L176.364,28.564 C173.872,27.4 171.05,26.902 167.064,26.902 C156.27,26.902 147.8,32.548 142.818,44.838 L141.324,28.564 L114.088,28.564 L114.088,112.926 Z" id="Fill-10"></path>
            <path d="M204.928,146.138 C223.194,146.138 233.324,137.836 243.454,113.756 L278.826,28.564 L249.268,28.564 L233.49,71.574 L216.552,28.564 L179.186,28.564 L216.22,109.438 L215.888,110.434 C213.23,116.578 209.078,118.904 200.776,118.904 C194.632,118.904 191.808,118.572 184.668,117.742 L184.668,144.312 C191.31,145.474 195.462,146.138 204.928,146.138 Z" id="Fill-11"></path>
        </g>
    </g>
</svg>

<svg height="183" viewBox="0 0 505 183" width="505" xmlns="http://www.w3.org/2000/svg" xmlns:xlink="http://www.w3.org/1999/xlink"><defs><path id="a" d="m458.75822 107.426 15.778-43.01h29.558l-35.372 85.192c-10.13 24.08-20.26 32.382-38.526 32.382-9.466 0-13.618-.664-20.26-1.826v-26.57c7.14.83 9.964 1.162 16.108 1.162 8.302 0 12.454-2.326 15.112-8.47l.332-.996-37.034-80.874h37.366zm-346.3548-85.49v15.574l11.013-11.012c8.5606-8.562 22.461-8.562 31.0218 0 8.5606 8.56 8.5606 22.46 0 31.022l-11.013 11.012h15.5746c12.1066 0 21.9358 9.83 21.9358 21.936s-9.8292 21.936-21.9358 21.936h-15.5746l11.013 11.012c8.5606 8.562 8.5606 22.462 0 31.022-8.5608 8.562-22.4612 8.562-31.0218 0l-11.013-11.012v15.574c0 12.106-9.829 21.936-21.9356 21.936-12.1068 0-21.9358-9.83-21.9358-21.936v-15.574l-11.0128 11.012c-8.5608 8.562-22.4612 8.562-31.0218 0-8.5608-8.56-8.5608-22.46 0-31.022l11.0128-11.012h-15.5744c-12.1068 0-21.93582-9.83-21.93582-21.936s9.82902-21.936 21.93582-21.936h15.5744l-11.0128-11.012c-8.5608-8.562-8.5608-22.462 0-31.022 8.5606-8.562 22.461-8.562 31.0218 0l11.0128 11.012v-15.574c0-12.106 9.829-21.936 21.9358-21.936 12.1066 0 21.9356 9.83 21.9356 21.936zm223.7988 69.714c0 32.882-21.922 57.128-66.096 57.128h-44.838v-112.926h44.838c44.174 0 66.096 22.918 66.096 55.798zm65.43-27.234v28.728c-1.826-.664-4.318-1.162-7.474-1.162-12.288 0-21.588 7.308-21.588 24.578v32.218h-33.214v-84.362h27.236l1.494 16.274c4.982-12.29 13.452-17.936 24.246-17.936 3.986 0 6.808.498 9.3 1.662zm-141.822-1.994v59.784h10.464c16.44 0 30.224-10.13 30.224-29.726s-13.618-30.058-30.224-30.058z"/></defs><g fill="none" fill-rule="evenodd" xlink:href="#a"><g transform="translate(.4498 .24)"><path d="m37.51022 112.404h-15.5744c-12.1068 0-21.93582-9.83-21.93582-21.936s9.82902-21.936 21.93582-21.936h15.5744l-11.0128-11.012c-8.5608-8.562-8.5608-22.462 0-31.022 8.5606-8.562 22.461-8.562 31.0218 0l11.0128 11.012v-15.574c0-12.106 9.829-21.936 21.9358-21.936 12.1066 0 21.9356 9.83 21.9356 21.936v15.574l11.013-11.012c8.5606-8.562 22.461-8.562 31.0218 0 8.5606 8.56 8.5606 22.46 0 31.022l-11.013 11.012h15.5746c12.1066 0 21.9358 9.83 21.9358 21.936s-9.8292 21.936-21.9358 21.936h-15.5746l11.013 11.012c8.5606 8.562 8.5606 22.462 0 31.022-8.5608 8.562-22.4612 8.562-31.0218 0l-11.013-11.012v15.574c0 12.106-9.829 21.936-21.9356 21.936-12.1068 0-21.9358-9.83-21.9358-21.936v-15.574l-11.0128 11.012c-8.5608 8.562-22.4612 8.562-31.0218 0-8.5608-8.56-8.5608-22.46 0-31.022z" fill="#ff8000"/><path d="m91.69542 47.606c22.5166 0 40.7974 18.28 40.7974 40.798 0 22.516-18.2808 40.798-40.7974 40.798-22.5168 0-40.7976-18.282-40.7976-40.798 0-22.518 18.2808-40.798 40.7976-40.798z" fill="#ffc266"/><g fill="#000"><path d="m70.51742 80.438c-1.367-.734-1.8812-2.44-1.1476-3.806.7334-1.368 2.4388-1.882 3.8058-1.148l12.2848 6.592c.9172.492 1.4874 1.452 1.4816438 2.492-.0058438 1.042-.5864438 1.994-1.5092438 2.476l-12.1438 6.344c-1.375.72-3.0746.186-3.7928-1.19-.7184-1.374-.1852-3.074 1.1898-3.792l7.4386-3.886z"/><path d="m110.21502 75.484c1.367-.734 3.0724-.22 3.8058 1.148.7336 1.366.2194 3.072-1.1476 3.806l-7.6072 4.082 7.4386 3.886c1.375.718 1.9082 2.418 1.1898 3.792-.7182 1.376-2.4178 1.91-3.7928 1.19l-12.1438-6.344c-.9228-.482-1.5034-1.434-1.5092438-2.476-.0057562-1.04.5644438-2 1.4816438-2.492z"/></g></g><g fill="#ff8000" transform="translate(225.718 36.092)"><path d="m0 112.926h44.838c44.174 0 66.096-24.246 66.096-57.128 0-32.88-21.922-55.798-66.096-55.798h-44.838zm34.542-26.572v-59.784h10.464c16.606 0 30.224 10.462 30.224 30.058s-13.784 29.726-30.224 29.726z"/><path d="m114.088 112.926h33.214v-32.218c0-17.27 9.3-24.578 21.588-24.578 3.156 0 5.648.498 7.474 1.162v-28.728c-2.492-1.164-5.314-1.662-9.3-1.662-10.794 0-19.264 5.646-24.246 17.936l-1.494-16.274h-27.236z"/><path d="m204.928 146.138c18.266 0 28.396-8.302 38.526-32.382l35.372-85.192h-29.558l-15.778 43.01-16.938-43.01h-37.366l37.034 80.874-.332.996c-2.658 6.144-6.81 8.47-15.112 8.47-6.144 0-8.968-.332-16.108-1.162v26.57c6.642 1.162 10.794 1.826 20.26 1.826z"/></g></g></svg>
